src/topics/icons/netflix-icon.svg

<svg height="256" preserveAspectRatio="xMidYMid" viewBox="0 0 256 256" width="256" xmlns="http://www.w3.org/2000/svg" xmlns:xlink="http://www.w3.org/1999/xlink"><radialGradient id="a" cx="48.339718%" cy="49.418621%" gradientTransform="matrix(1 0 0 .550875 0 .221951)" r="70.438089%"><stop offset="0"/><stop offset="1" stop-opacity="0"/></radialGradient><path d="m.00000018.00000114h255.90425382v255.90425386h-255.90425382z"/><path d="m141.676338 41.2746569-.067432 38.3613827-.067788 38.3613814-3.15611-8.905321c-.001096-.003069-.004987-.014413-.006065-.017482l-4.078393 85.402599c4.009838 11.323717 6.158216 17.36872 6.182347 17.392847.031573.031585 2.316708.169435 5.078103.306477 8.366405.415161 18.73404 1.304778 26.598936 2.281989 1.821024.226241 3.388216.342101 3.482565.257598.094351-.084504.145728-39.14347.114171-86.797623l-.057442-86.6438481h-17.011446z" fill="#b1060f" stroke="#000" stroke-width="2.956221"/><path d="m80.1382878 41.1604861v86.7316179c0 47.702451.0466767 86.778639.1038242 86.835798.0571438.05714 3.0113137-.221762 6.5648198-.619734 3.5535025-.39799 8.4646929-.892876 10.9136561-1.099607 3.7559391-.317084 14.9700631-1.038107 16.2686241-1.046089.377742-.002375.40197-1.951238.456683-36.735877l.057798-36.733378 2.71334 7.676914c.419329 1.186542.550861 1.557067.959391 2.712985l4.077324-85.3815481c-.863912-2.4425573-.411037-1.1603445-1.40109-3.9595855-3.331399-9.4190901-6.158326-17.408195-6.282246-17.753557l-.225488-.6279393h-17.1031391z" fill="#b1060f" stroke="#000" stroke-width="2.956221"/><path d="m80.1382787 41.1604861.0000091 48.6849187 34.2961902 90.9755582c.00358-2.084788.007672-3.211275.011417-5.594368l.057798-36.733378 2.71334 7.676914c15.103623 42.737557 23.218141 65.652219 23.265864 65.699933.031573.031585 2.316708.169435 5.078103.306477 8.366405.415161 18.73404 1.304778 26.598936 2.281989 1.821024.226241 3.388216.342101 3.482565.257598.064849-.058083.107182-19.209575.118453-46.227036l-34.135635-98.1401316-.016422 9.2870792-.067788 38.3613814-3.15611-8.905321c-3.083862-8.701476-5.142939-14.5206964-17.53235-49.5501176-3.331399-9.4190901-6.158326-17.408195-6.282246-17.753557l-.225488-.6279393h-17.1031392z" fill="url(#a)"/><path d="m80.1390021 41.160477 34.3646909 97.376981v-.044241l2.71334 7.676914c15.103623 42.737557 23.218141 65.652219 23.265864 65.699933.031573.031585 2.316708.169435 5.078103.306477 8.366405.415161 18.73404 1.304778 26.598936 2.281989 1.811691.225081 3.370857.340696 3.479712.258667l-34.09853-96.737614v.017829l-3.15611-8.905321c-3.083862-8.701476-5.142939-14.5206965-17.53235-49.5501178-3.331399-9.41909-6.158326-17.4081949-6.282246-17.7535569l-.225488-.6279393h-17.1031391z" fill="#e50914"/><path d="m141.676338 41.2746569-.067432 38.3613827-.067788 38.3613814-3.15611-8.905321c-.001096-.003069-.004987-.014413-.006065-.017482l-4.078393 85.402599c4.009838 11.323717 6.158216 17.36872 6.182347 17.392847.031573.031585 2.316708.169435 5.078103.306477 8.366405.415161 18.73404 1.304778 26.598936 2.281989 1.821024.226241 3.388216.342101 3.482565.257598.094351-.084504.145728-39.14347.114171-86.797623l-.057442-86.6438481h-17.011446z" fill="#b1060f" stroke="#000" stroke-width="2.956221"/><path d="m80.1382878 41.1604861v86.7316179c0 47.702451.0466767 86.778639.1038242 86.835798.0571438.05714 3.0113137-.221762 6.5648198-.619734 3.5535025-.39799 8.4646929-.892876 10.9136561-1.099607 3.7559391-.317084 14.9700631-1.038107 16.2686241-1.046089.377742-.002375.40197-1.951238.456683-36.735877l.057798-36.733378 2.71334 7.676914c.419329 1.186542.550861 1.557067.959391 2.712985l4.077324-85.3815481c-.863912-2.4425573-.411037-1.1603445-1.40109-3.9595855-3.331399-9.4190901-6.158326-17.408195-6.282246-17.753557l-.225488-.6279393h-17.1031391z" fill="#b1060f" stroke="#000" stroke-width="2.956221"/><path d="m80.1382787 41.1604861.0000091 48.6849187 34.2961902 90.9755582c.00358-2.084788.007672-3.211275.011417-5.594368l.057798-36.733378 2.71334 7.676914c15.103623 42.737557 23.218141 65.652219 23.265864 65.699933.031573.031585 2.316708.169435 5.078103.306477 8.366405.415161 18.73404 1.304778 26.598936 2.281989 1.821024.226241 3.388216.342101 3.482565.257598.064849-.058083.107182-19.209575.118453-46.227036l-34.135635-98.1401316-.016422 9.2870792-.067788 38.3613814-3.15611-8.905321c-3.083862-8.701476-5.142939-14.5206964-17.53235-49.5501176-3.331399-9.4190901-6.158326-17.408195-6.282246-17.753557l-.225488-.6279393h-17.1031392z" fill="url(#a)"/><path d="m80.1390021 41.160477 34.3646909 97.376981v-.044241l2.71334 7.676914c15.103623 42.737557 23.218141 65.652219 23.265864 65.699933.031573.031585 2.316708.169435 5.078103.306477 8.366405.415161 18.73404 1.304778 26.598936 2.281989 1.811691.225081 3.370857.340696 3.479712.258667l-34.09853-96.737614v.017829l-3.15611-8.905321c-3.083862-8.701476-5.142939-14.5206965-17.53235-49.5501178-3.331399-9.41909-6.158326-17.4081949-6.282246-17.7535569l-.225488-.6279393h-17.1031391z" fill="#e50914"/></svg>

<?xml version="1.0" encoding="UTF-8"?>
<svg width="256px" height="256px" viewBox="0 0 256 256" version="1.1" xmlns="http://www.w3.org/2000/svg" xmlns:xlink="http://www.w3.org/1999/xlink" preserveAspectRatio="xMidYMid">
    <defs>
        <radialGradient cx="48.3397178%" cy="49.4186213%" fx="48.3397178%" fy="49.4186213%" r="70.4380887%" gradientTransform="translate(0.483397,0.494186),scale(1.000000,0.550875),translate(-0.483397,-0.494186)" id="radialGradient-1">
            <stop stop-color="#000000" offset="0%"></stop>
            <stop stop-color="#000000" stop-opacity="0" offset="100%"></stop>
        </radialGradient>
    </defs>
		<g>
				<polygon fill="#000000" fill-rule="nonzero" points="1.80114185e-07 1.13710799e-06 255.904254 1.13710799e-06 255.904254 255.904255 1.80114171e-07 255.904255"></polygon>
				<path d="M141.676338,41.2746569 L141.608906,79.6360396 L141.541118,117.997421 L138.385008,109.0921 C138.383912,109.089031 138.380021,109.077687 138.378943,109.074618 L134.30055,194.477217 C138.310388,205.800934 140.458766,211.845937 140.482897,211.870064 C140.51447,211.901649 142.799605,212.039499 145.561,212.176541 C153.927405,212.591702 164.29504,213.481319 172.159936,214.45853 C173.98096,214.684771 175.548152,214.800631 175.642501,214.716128 C175.736852,214.631624 175.788229,175.572658 175.756672,127.918505 L175.69923,41.2746569 L158.687784,41.2746569 L141.676338,41.2746569 Z" stroke="#000000" stroke-width="2.9562209" fill="#B1060F"></path>
				<path d="M80.1382878,41.1604861 L80.1382878,127.892104 C80.1382878,175.594555 80.1849645,214.670743 80.242112,214.727902 C80.2992558,214.785042 83.2534257,214.50614 86.8069318,214.108168 C90.3604343,213.710178 95.2716247,213.215292 97.7205879,213.008561 C101.476527,212.691477 112.690651,211.970454 113.989212,211.962472 C114.366954,211.960097 114.391182,210.011234 114.445895,175.226595 L114.503693,138.493217 L117.217033,146.170131 C117.636362,147.356673 117.767894,147.727198 118.176424,148.883116 L122.253748,63.5015679 C121.389836,61.0590106 121.842711,62.3412234 120.852658,59.5419824 C117.521259,50.1228923 114.694332,42.1337874 114.570412,41.7884254 L114.344924,41.1604861 L97.2417849,41.1604861 L80.1382878,41.1604861 Z" stroke="#000000" stroke-width="2.9562209" fill="#B1060F"></path>
				<path d="M80.1382787,41.1604861 L80.1382878,89.8454048 L114.434478,180.820963 C114.438058,178.736175 114.44215,177.609688 114.445895,175.226595 L114.503693,138.493217 L117.217033,146.170131 C132.320656,188.907688 140.435174,211.82235 140.482897,211.870064 C140.51447,211.901649 142.799605,212.039499 145.561,212.176541 C153.927405,212.591702 164.29504,213.481319 172.159936,214.45853 C173.98096,214.684771 175.548152,214.800631 175.642501,214.716128 C175.70735,214.658045 175.749683,195.506553 175.760954,168.489092 L141.625319,70.3489604 L141.608897,79.6360396 L141.541109,117.997421 L138.384999,109.0921 C135.301137,100.390624 133.24206,94.5714036 120.852649,59.5419824 C117.52125,50.1228923 114.694323,42.1337874 114.570403,41.7884254 L114.344915,41.1604861 L97.2417758,41.1604861 L80.1382787,41.1604861 Z" fill="url(#radialGradient-1)"></path>
				<path d="M80.1390021,41.160477 L114.503693,138.537458 L114.503693,138.493217 L117.217033,146.170131 C132.320656,188.907688 140.435174,211.82235 140.482897,211.870064 C140.51447,211.901649 142.799605,212.039499 145.561,212.176541 C153.927405,212.591702 164.29504,213.481319 172.159936,214.45853 C173.971627,214.683611 175.530793,214.799226 175.639648,214.717197 L141.541118,117.979583 L141.541118,117.997412 L138.385008,109.092091 C135.301146,100.390615 133.242069,94.5713945 120.852658,59.5419732 C117.521259,50.1228832 114.694332,42.1337783 114.570412,41.7884163 L114.344924,41.160477 L97.2417849,41.160477 L80.1390021,41.160477 Z" fill="#E50914"></path>
				<path d="M141.676338,41.2746569 L141.608906,79.6360396 L141.541118,117.997421 L138.385008,109.0921 C138.383912,109.089031 138.380021,109.077687 138.378943,109.074618 L134.30055,194.477217 C138.310388,205.800934 140.458766,211.845937 140.482897,211.870064 C140.51447,211.901649 142.799605,212.039499 145.561,212.176541 C153.927405,212.591702 164.29504,213.481319 172.159936,214.45853 C173.98096,214.684771 175.548152,214.800631 175.642501,214.716128 C175.736852,214.631624 175.788229,175.572658 175.756672,127.918505 L175.69923,41.2746569 L158.687784,41.2746569 L141.676338,41.2746569 Z" stroke="#000000" stroke-width="2.9562209" fill="#B1060F"></path>
				<path d="M80.1382878,41.1604861 L80.1382878,127.892104 C80.1382878,175.594555 80.1849645,214.670743 80.242112,214.727902 C80.2992558,214.785042 83.2534257,214.50614 86.8069318,214.108168 C90.3604343,213.710178 95.2716247,213.215292 97.7205879,213.008561 C101.476527,212.691477 112.690651,211.970454 113.989212,211.962472 C114.366954,211.960097 114.391182,210.011234 114.445895,175.226595 L114.503693,138.493217 L117.217033,146.170131 C117.636362,147.356673 117.767894,147.727198 118.176424,148.883116 L122.253748,63.5015679 C121.389836,61.0590106 121.842711,62.3412234 120.852658,59.5419824 C117.521259,50.1228923 114.694332,42.1337874 114.570412,41.7884254 L114.344924,41.1604861 L97.2417849,41.1604861 L80.1382878,41.1604861 Z" stroke="#000000" stroke-width="2.9562209" fill="#B1060F"></path>
				<path d="M80.1382787,41.1604861 L80.1382878,89.8454048 L114.434478,180.820963 C114.438058,178.736175 114.44215,177.609688 114.445895,175.226595 L114.503693,138.493217 L117.217033,146.170131 C132.320656,188.907688 140.435174,211.82235 140.482897,211.870064 C140.51447,211.901649 142.799605,212.039499 145.561,212.176541 C153.927405,212.591702 164.29504,213.481319 172.159936,214.45853 C173.98096,214.684771 175.548152,214.800631 175.642501,214.716128 C175.70735,214.658045 175.749683,195.506553 175.760954,168.489092 L141.625319,70.3489604 L141.608897,79.6360396 L141.541109,117.997421 L138.384999,109.0921 C135.301137,100.390624 133.24206,94.5714036 120.852649,59.5419824 C117.52125,50.1228923 114.694323,42.1337874 114.570403,41.7884254 L114.344915,41.1604861 L97.2417758,41.1604861 L80.1382787,41.1604861 Z" fill="url(#radialGradient-1)"></path>
				<path d="M80.1390021,41.160477 L114.503693,138.537458 L114.503693,138.493217 L117.217033,146.170131 C132.320656,188.907688 140.435174,211.82235 140.482897,211.870064 C140.51447,211.901649 142.799605,212.039499 145.561,212.176541 C153.927405,212.591702 164.29504,213.481319 172.159936,214.45853 C173.971627,214.683611 175.530793,214.799226 175.639648,214.717197 L141.541118,117.979583 L141.541118,117.997412 L138.385008,109.092091 C135.301146,100.390615 133.242069,94.5713945 120.852658,59.5419732 C117.521259,50.1228832 114.694332,42.1337783 114.570412,41.7884163 L114.344924,41.160477 L97.2417849,41.160477 L80.1390021,41.160477 Z" fill="#E50914"></path>
		</g>
</svg>
